X:1
T:Title
%%score ( 1 2 ) { 3 | 4 }
L:1/8
Q:1/4=94
M:4/4
K:F
V:1 treble nm="Bright Piano"
V:2 treble 
V:3 treble nm="Bright Piano"
V:4 bass 
V:1
 [FA]2 [GB][EG] [CF]2 [^CE]2 | D2 [B,E]2 [B,F]2 [A,F]2 | [CA]2 [CF]2 D-[B,D] [DG]2 | %3
w: Ernst~Tesch * * * *|||
 [CF]2 [CE]2 [CF]4 | [Fc]2 [FA]2 [Fd]2 [Ed]2 | [Fc]2 cB [FA]2 [EG]2 | [EA]2 [DF]2 [Fd]2 [GB]2 | %7
w: ||||
 [FA]2 [EG]2 [CF]4 |] %8
w: |
V:2
 x8 | x8 | z4 .C2 z2 | x8 | x8 | z2 G2 z4 | x8 | x8 |] %8
V:3
 C2 C2 C2 A,2 | A,2[K:bass] G,2 F,2 F,2 | F,2 F,2 F,2 B,2 | A,2 G,B, A,4 | A,2 C2 B,2 B,2 | %5
 A,2[K:treble] C2 C2 C2 | C2 D2 D2 D2 | C2 CB, A,4 |] %8
V:4
 F,2 E,B, A,2 G,2 | F,2 C,2 F,,2 F,,2 | z2 A,,2 B,,2 G,,2 | A,,B,, C,2 F,,4 | F,2 F,2 B,,2 G,2 | %5
 z2 E,2 F,2 C,B,, | A,,2 D,2 B,,2 G,,2 | C,2 C,2 F,,4 |] %8

